ICONS/component-icons/svg/slider.svg

<?xml version="1.0" encoding="UTF-8"?><svg id="widgets" xmlns="http://www.w3.org/2000/svg" width="24" height="24" viewBox="0 0 24 24"><path id="slider" d="M22,5h-2V3h4l-2,2ZM12,3H0v2H12V3Zm12,16H12v2h10l2-2Zm-20,0H0v2H4v-2ZM24,11h-8v2h6l2-2Zm-16,0H0v2H8v-2Zm6-5h4V2h-4V6Zm-4,8h4v-4h-4v4Zm-4,8h4v-4H6v4Z"/></svg>

<?xml version="1.0" encoding="utf-8"?>
<!-- Generator: Adobe Illustrator 24.2.3, SVG Export Plug-In . SVG Version: 6.00 Build 0)  -->
<svg version="1.1" id="Layer_1" xmlns="http://www.w3.org/2000/svg" xmlns:xlink="http://www.w3.org/1999/xlink" x="0px" y="0px"
	 width="24px" height="24px" viewBox="0 0 24 24" enable-background="new 0 0 24 24" xml:space="preserve">
<path d="M18,2h-4v4h4V2z M8,11H0v2h8V11z M12,3H0v2h12V3z M24,3h-4v2h2L24,3z M16,13h6l2-2h-8V13z M12,21h10l2-2H12V21z M14,10h-4v4
	h4V10z M6,22h4v-4H6V22z M0,21h4v-2H0V21z"/>
</svg>
